X: 323
T: Yesterday morning
C: anon.
O: Ireland
B: Francis O'Neill: "The Dance Music of Ireland" (1907) no. 323
R: Double jig
Z: Transcribed by Frank Nordberg - http://www.musicaviva.com
F: http://www.musicaviva.com/abc/tunes/ireland/oneill-1001/oneill-1001-032
3.abc
M: 6/8
L: 1/8
K: G
(G/F/)|DGG GAG|FDF ABc|BdB cAc|BGA FGE|DGG GAG|FDF ABc|BdB ({d}c2)B|AGF G
2: |
|:c|Bdd ded|efg d2c|BGB cAc|BGA FGE|DGG GAG|FDF ABc|BdB ({d}c2)B|AGF G2:|


